img/icon-crypto.svg

<?xml version="1.0" encoding="UTF-8"?>
<svg width="80px" height="80px" viewBox="0 0 80 80" version="1.1" xmlns="http://www.w3.org/2000/svg" xmlns:xlink="http://www.w3.org/1999/xlink">
    <title>Group 5</title>
    <defs>
        <rect id="path-1" x="0" y="0" width="80" height="80"></rect>
    </defs>
    <g id="Final" stroke="none" stroke-width="1" fill="none" fill-rule="evenodd">
        <g id="Product-design---desktop" transform="translate(-732.000000, -1702.000000)">
            <g id="Group-5" transform="translate(732.000000, 1702.000000)">
                <mask id="mask-2" fill="white">
                    <use xlink:href="#path-1"></use>
                </mask>
                <g id="Mask"></g>
                <g mask="url(#mask-2)" fill="#00BECB">
                    <path d="M40,0 C17.9440559,0 0,17.9440559 0,40 C0,47.4193007 2.04699301,54.6634965 5.91944056,60.9504895 C6.56727273,62.0033566 7.94573427,62.3306294 8.99804196,61.6827972 C10.0503497,61.0344056 10.3781818,59.6559441 9.72979021,58.6036364 C6.29258741,53.0226573 4.47552448,46.5896503 4.47552448,40 C4.47552448,20.4117483 20.4117483,4.47552448 40,4.47552448 C59.5882517,4.47552448 75.5244755,20.4117483 75.5244755,40 C75.5244755,59.5882517 59.5882517,75.5244755 40,75.5244755 C33.6688112,75.5244755 27.453986,73.8388811 22.0285315,70.6506294 C20.9633566,70.0246154 19.5916084,70.3804196 18.9655944,71.4461538 C18.3395804,72.5113287 18.6953846,73.8825175 19.7611189,74.5090909 C25.8735664,78.1012587 32.8716084,80 40,80 C62.0559441,80 80,62.0559441 80,40 C80,17.9440559 62.0559441,0 40,0" id="Fill-1"></path>
                    <path d="M45.3775105,24.427972 C46.3503776,24.8123077 47.1296783,25.5093706 47.7176503,26.518042 C48.3050629,27.5278322 48.5993287,28.7927273 48.5993287,30.3104895 C48.5993287,31.9451748 48.2770909,33.2374825 47.6309371,34.1890909 C46.9859021,35.1406993 46.0661818,35.8181818 44.8728951,36.2220979 C44.0432448,36.4911888 42.6474406,36.626014 40.6826853,36.626014 L33.1716364,36.626014 L33.1716364,23.8511888 L40.1338741,23.8511888 C42.6575105,23.8511888 44.4052028,24.0436364 45.3775105,24.427972 L45.3775105,24.427972 Z M49.0586294,44.8016783 C49.7137343,45.9071329 50.041007,47.2576224 50.041007,48.8525874 C50.041007,50.5834965 49.6991888,52.0201399 49.0155524,53.1636364 C48.3313566,54.3076923 47.334993,55.1295105 46.0259021,55.6290909 C45.1201678,55.9759441 43.7148531,56.1482517 41.8082797,56.1482517 L33.1716364,56.1482517 L33.1716364,41.6151049 L41.2012867,41.6151049 C43.5705175,41.6151049 45.3081399,41.8696503 46.4147133,42.3787413 C47.522965,42.8883916 48.4040839,43.6962238 49.0586294,44.8016783 L49.0586294,44.8016783 Z M31.4686993,14.0229371 L31.4686993,18.8626573 L28.5864615,18.8626573 L28.5864615,61.1373427 L31.4686993,61.1373427 L31.4686993,65.9770629 L36.5036643,65.9770629 L36.5036643,61.1373427 L41.5386294,61.1373427 L41.5386294,65.9770629 L46.5735944,65.9770629 L46.5735944,60.6634965 C47.4871608,60.4537063 48.300028,60.1756643 49.0026853,59.8243357 C50.7514965,58.9493706 52.1500979,57.5451748 53.1984895,55.6111888 C54.2463217,53.6783217 54.7705175,51.4327273 54.7705175,48.8744056 C54.7705175,46.2965035 54.1914965,44.126993 53.0334545,42.366993 C51.8748531,40.6075524 50.2910769,39.3611189 48.281007,38.6304895 C49.8189091,37.688951 51.0110769,36.4402797 51.8575105,34.8839161 C52.7039441,33.3281119 53.1268811,31.5798601 53.1268811,29.6397203 C53.1268811,27.5457343 52.6356923,25.6341259 51.6544336,23.9048951 C50.6720559,22.1767832 49.4110769,20.9034965 47.8720559,20.0872727 C47.475972,19.8769231 47.0424056,19.6951049 46.5735944,19.5395804 L46.5735944,14.0229371 L41.5386294,14.0229371 L41.5386294,18.8626573 L36.5036643,18.8626573 L36.5036643,14.0229371 L31.4686993,14.0229371 Z" id="Fill-3"></path>
                </g>
            </g>
        </g>
    </g>
</svg>

<?xml version="1.0" encoding="utf-8"?>
<!-- Generator: Adobe Illustrator 25.2.0, SVG Export Plug-In . SVG Version: 6.00 Build 0)  -->
<svg version="1.1" id="Layer_1" xmlns="http://www.w3.org/2000/svg" xmlns:xlink="http://www.w3.org/1999/xlink" x="0px" y="0px"
	 viewBox="0 0 80 80" style="enable-background:new 0 0 80 80;" xml:space="preserve">
<style type="text/css">
	.st0{filter:url(#Adobe_OpacityMaskFilter);}
	.st1{fill-rule:evenodd;clip-rule:evenodd;fill:#FFFFFF;}
	.st2{mask:url(#mask-2_1_);}
	.st3{fill-rule:evenodd;clip-rule:evenodd;fill:#0065E6;}
</style>
<g id="Final">
	<g id="Product-design---desktop" transform="translate(-732.000000, -1702.000000)">
		<g id="Group-5" transform="translate(732.000000, 1702.000000)">
			<g id="Mask">
			</g>
			<defs>
				<filter id="Adobe_OpacityMaskFilter" filterUnits="userSpaceOnUse" x="0" y="0" width="80" height="80">
					<feColorMatrix  type="matrix" values="1 0 0 0 0  0 1 0 0 0  0 0 1 0 0  0 0 0 1 0"/>
				</filter>
			</defs>
			<mask maskUnits="userSpaceOnUse" x="0" y="0" width="80" height="80" id="mask-2_1_">
				<g class="st0">
					<rect id="path-1_1_" class="st1" width="80" height="80"/>
				</g>
			</mask>
			<g class="st2">
				<path id="Fill-1" class="st3" d="M40,0C17.9,0,0,17.9,0,40c0,7.4,2,14.7,5.9,21c0.6,1.1,2,1.4,3.1,0.7c1.1-0.6,1.4-2,0.7-3.1
					C6.3,53,4.5,46.6,4.5,40C4.5,20.4,20.4,4.5,40,4.5S75.5,20.4,75.5,40S59.6,75.5,40,75.5c-6.3,0-12.5-1.7-18-4.9
					C21,70,19.6,70.4,19,71.4c-0.6,1.1-0.3,2.4,0.8,3.1C25.9,78.1,32.9,80,40,80c22.1,0,40-17.9,40-40S62.1,0,40,0"/>
				<path id="Fill-3" class="st3" d="M45.4,24.4c1,0.4,1.8,1.1,2.3,2.1c0.6,1,0.9,2.3,0.9,3.8c0,1.6-0.3,2.9-1,3.9
					c-0.6,1-1.6,1.6-2.8,2c-0.8,0.3-2.2,0.4-4.2,0.4h-7.5V23.9h7C42.7,23.9,44.4,24,45.4,24.4L45.4,24.4z M49.1,44.8
					c0.7,1.1,1,2.5,1,4.1c0,1.7-0.3,3.2-1,4.3c-0.7,1.1-1.7,2-3,2.5c-0.9,0.3-2.3,0.5-4.2,0.5h-8.6V41.6h8c2.4,0,4.1,0.3,5.2,0.8
					C47.5,42.9,48.4,43.7,49.1,44.8L49.1,44.8z M31.5,14v4.8h-2.9v42.3h2.9V66h5v-4.8h5V66h5v-5.3c0.9-0.2,1.7-0.5,2.4-0.8
					c1.7-0.9,3.1-2.3,4.2-4.2c1-1.9,1.6-4.2,1.6-6.7c0-2.6-0.6-4.7-1.7-6.5c-1.2-1.8-2.7-3-4.8-3.7c1.5-0.9,2.7-2.2,3.6-3.7
					c0.8-1.6,1.3-3.3,1.3-5.2c0-2.1-0.5-4-1.5-5.7c-1-1.7-2.2-3-3.8-3.8c-0.4-0.2-0.8-0.4-1.3-0.5V14h-5v4.8h-5V14H31.5z"/>
			</g>
		</g>
	</g>
</g>
</svg>
